icons/evolvere-sunken-dark-fallback/apps/16/video-player.svg

<?xml version="1.0" encoding="UTF-8" standalone="no"?>
<!-- Created with Inkscape (http://www.inkscape.org/) -->

<svg
   xmlns:dc="http://purl.org/dc/elements/1.1/"
   xmlns:cc="http://creativecommons.org/ns#"
   xmlns:rdf="http://www.w3.org/1999/02/22-rdf-syntax-ns#"
   xmlns:svg="http://www.w3.org/2000/svg"
   xmlns="http://www.w3.org/2000/svg"
   xmlns:sodipodi="http://sodipodi.sourceforge.net/DTD/sodipodi-0.dtd"
   xmlns:inkscape="http://www.inkscape.org/namespaces/inkscape"
   version="1.1"
   width="16"
   height="16"
   id="svg13094"
   inkscape:version="0.48.3.1 r9886"
   sodipodi:docname="bangarang.svg">
  <sodipodi:namedview
     pagecolor="#ffffff"
     bordercolor="#666666"
     borderopacity="1"
     objecttolerance="10"
     gridtolerance="10"
     guidetolerance="10"
     inkscape:pageopacity="0"
     inkscape:pageshadow="2"
     inkscape:window-width="1920"
     inkscape:window-height="1033"
     id="namedview6"
     showgrid="true"
     inkscape:snap-bbox="true"
     inkscape:bbox-paths="true"
     inkscape:bbox-nodes="true"
     inkscape:snap-bbox-edge-midpoints="true"
     inkscape:snap-bbox-midpoints="true"
     inkscape:object-paths="true"
     inkscape:snap-intersection-paths="true"
     inkscape:object-nodes="true"
     inkscape:snap-smooth-nodes="true"
     inkscape:snap-midpoints="true"
     inkscape:snap-object-midpoints="true"
     inkscape:snap-center="true"
     inkscape:zoom="41.7193"
     inkscape:cx="7.0198184"
     inkscape:cy="7.3325492"
     inkscape:window-x="-10"
     inkscape:window-y="25"
     inkscape:window-maximized="1"
     inkscape:current-layer="svg13094">
    <inkscape:grid
       type="xygrid"
       id="grid2983" />
  </sodipodi:namedview>
  <defs
     id="defs7" />
  <metadata
     id="metadata13099">
    <rdf:RDF>
      <cc:Work
         rdf:about="">
        <dc:format>image/svg+xml</dc:format>
        <dc:type
           rdf:resource="http://purl.org/dc/dcmitype/StillImage" />
        <dc:title />
      </cc:Work>
    </rdf:RDF>
  </metadata>
  <path
     sodipodi:nodetypes="cccccccccccccccccccccccccccccccccccccccccccccccccccccccc"
     inkscape:connector-curvature="0"
     id="path2998"
     d="m 2.3125,1 2,2 -2,2 L 1,5 1,15 15,15 15,5 15,4.3125 14.3125,5 12.6875,5 14.34375,3.34375 14.71875,3 14.34375,2.65625 12.6875,1 l -1.375,0 2,2 -2,2 L 9.6875,5 11.34375,3.34375 11.71875,3 11.34375,2.65625 9.6875,1 l -1.375,0 2,2 -2,2 L 6.6875,5 8.34375,3.34375 8.71875,3 8.34375,2.65625 6.6875,1 l -1.375,0 2,2 -2,2 L 3.6875,5 5.34375,3.34375 5.71875,3 5.34375,2.65625 3.6875,1 z m 12,0 L 15,1.6875 15,1 z M 1,1.3125 1,2.6875 1.3125,3 1,3.3125 1,4.6875 2.34375,3.34375 2.71875,3 2.34375,2.65625 z M 6,7 l 5,3 -5,3 z"
     style="color:#000000;fill:#434a55;fill-opacity:0.6745098;fill-rule:nonzero;stroke:none;stroke-width:4;marker:none;visibility:visible;display:inline;overflow:visible;enable-background:accumulate" />
  <path
     style="font-size:medium;font-style:normal;font-variant:normal;font-weight:normal;font-stretch:normal;text-indent:0;text-align:start;text-decoration:none;line-height:normal;letter-spacing:normal;word-spacing:normal;text-transform:none;direction:ltr;block-progression:tb;writing-mode:lr-tb;text-anchor:start;baseline-shift:baseline;color:#000000;fill:#d1d4d6;fill-opacity:0.74329164;fill-rule:nonzero;stroke:none;stroke-width:2;marker:none;visibility:visible;display:inline;overflow:visible;enable-background:accumulate;font-family:Sans;-inkscape-font-specification:Sans"
     d="M 0,-1.09375 0,0 -0.09375,0 0,0.09375 0,1.3125 0,2.6875 0,2.90625 0,3.09375 0,3.3125 0,4 0,4.6875 0,5 0,7.09375 0,15 l 0,1 1,0 14,0 1,0 0,-1 L 16,5 16,4.3125 16,4.09375 16,3.1875 16.1875,3 16,2.8125 16,1.90625 16,1.6875 16,1 16,0 15,0 14.3125,0 13.09375,0 12.6875,0 11.90625,0 11.3125,0 10.09375,0 9.6875,0 8.90625,0 8.3125,0 7.09375,0 6.6875,0 5.90625,0 5.3125,0 4.09375,0 3.6875,0 2.90625,0 2.3125,0 1.125,0 z M 2.3125,1 3.6875,1 5.34375,2.65625 5.71875,3 5.34375,3.34375 3.6875,5 l 1.625,0 2,-2 -2,-2 1.375,0 L 8.34375,2.65625 8.71875,3 8.34375,3.34375 6.6875,5 l 1.625,0 2,-2 -2,-2 1.375,0 1.65625,1.65625 L 11.71875,3 11.34375,3.34375 9.6875,5 l 1.625,0 2,-2 -2,-2 1.375,0 1.65625,1.65625 L 14.71875,3 14.34375,3.34375 12.6875,5 14.3125,5 15,4.3125 15,5 15,15 1,15 1,5 l 1.3125,0 2,-2 z m 12,0 L 15,1 15,1.6875 z M 1,1.3125 2.34375,2.65625 2.71875,3 2.34375,3.34375 1,4.6875 1,3.3125 1.3125,3 1,2.6875 z M 6,7 l 0,6 5,-3 z"
     id="path2992"
     inkscape:connector-curvature="0"
     sodipodi:nodetypes="ccccccccccccccccccccccccccccccccccccccccccccccccccccccccccccccccccccccccccccccccccccccccccccccccccccccccc" />
  <path
     sodipodi:nodetypes="ccc"
     inkscape:connector-curvature="0"
     d="M 8.0000002,-6 11,-9 8.0000002,-12"
     style="fill:none;stroke:#000000;stroke-width:1px;stroke-linecap:butt;stroke-linejoin:miter;stroke-opacity:1"
     id="path3067" />
  <path
     sodipodi:nodetypes="ccc"
     inkscape:connector-curvature="0"
     d="m 5.0000002,-6 3,-3 -3,-3"
     style="fill:none;stroke:#000000;stroke-width:1px;stroke-linecap:butt;stroke-linejoin:miter;stroke-opacity:1"
     id="path3069" />
  <path
     sodipodi:nodetypes="ccc"
     inkscape:connector-curvature="0"
     d="m 2.0000002,-6 3,-3 -3,-3"
     style="fill:none;stroke:#000000;stroke-width:1px;stroke-linecap:butt;stroke-linejoin:miter;stroke-opacity:1"
     id="path3071" />
  <path
     sodipodi:nodetypes="ccc"
     inkscape:connector-curvature="0"
     d="M -0.99999984,-6 2.0000002,-9 -0.99999984,-12"
     style="fill:none;stroke:#000000;stroke-width:1px;stroke-linecap:butt;stroke-linejoin:miter;stroke-opacity:1"
     id="path3073" />
  <path
     sodipodi:nodetypes="ccc"
     inkscape:connector-curvature="0"
     d="m -3.9999998,-6 2.99999996,-3 -2.99999996,-3"
     style="fill:none;stroke:#000000;stroke-width:1px;stroke-linecap:butt;stroke-linejoin:miter;stroke-opacity:1"
     id="path3075" />
  <path
     style="fill:none;stroke:#000000;stroke-width:1px;stroke-linecap:butt;stroke-linejoin:miter;stroke-opacity:1"
     d="m 11,-6 3,-3 -3,-3"
     inkscape:connector-curvature="0"
     sodipodi:nodetypes="ccc"
     id="path13" />
</svg>

<?xml version="1.0" encoding="UTF-8" standalone="no"?>
<!-- Created with Inkscape (http://www.inkscape.org/) -->

<svg
   xmlns:dc="http://purl.org/dc/elements/1.1/"
   xmlns:cc="http://creativecommons.org/ns#"
   xmlns:rdf="http://www.w3.org/1999/02/22-rdf-syntax-ns#"
   xmlns:svg="http://www.w3.org/2000/svg"
   xmlns="http://www.w3.org/2000/svg"
   xmlns:sodipodi="http://sodipodi.sourceforge.net/DTD/sodipodi-0.dtd"
   xmlns:inkscape="http://www.inkscape.org/namespaces/inkscape"
   version="1.1"
   width="16"
   height="16"
   id="svg13094"
   inkscape:version="0.48.4 r9939"
   sodipodi:docname="gnome-media-player-large.svg">
  <sodipodi:namedview
     pagecolor="#ffffff"
     bordercolor="#666666"
     borderopacity="1"
     objecttolerance="10"
     gridtolerance="10"
     guidetolerance="10"
     inkscape:pageopacity="0"
     inkscape:pageshadow="2"
     inkscape:window-width="1920"
     inkscape:window-height="1025"
     id="namedview6"
     showgrid="true"
     inkscape:snap-bbox="true"
     inkscape:bbox-paths="true"
     inkscape:bbox-nodes="true"
     inkscape:snap-bbox-edge-midpoints="true"
     inkscape:snap-bbox-midpoints="true"
     inkscape:object-paths="true"
     inkscape:snap-intersection-paths="true"
     inkscape:object-nodes="true"
     inkscape:snap-smooth-nodes="true"
     inkscape:snap-midpoints="true"
     inkscape:snap-object-midpoints="true"
     inkscape:snap-center="true"
     inkscape:zoom="41.7193"
     inkscape:cx="8.0505164"
     inkscape:cy="8.0516408"
     inkscape:window-x="-2"
     inkscape:window-y="32"
     inkscape:window-maximized="1"
     inkscape:current-layer="svg13094">
    <inkscape:grid
       type="xygrid"
       id="grid2983" />
  </sodipodi:namedview>
  <defs
     id="defs7" />
  <metadata
     id="metadata13099">
    <rdf:RDF>
      <cc:Work
         rdf:about="">
        <dc:format>image/svg+xml</dc:format>
        <dc:type
           rdf:resource="http://purl.org/dc/dcmitype/StillImage" />
        <dc:title />
      </cc:Work>
    </rdf:RDF>
  </metadata>
  <path
     sodipodi:nodetypes="cccccccccccccccccccccccccccccccccccccccccccccccccccccccc"
     inkscape:connector-curvature="0"
     id="path2998"
     d="m 2.3125,1 2,2 -2,2 L 1,5 1,15 15,15 15,5 15,4.3125 14.3125,5 12.6875,5 14.34375,3.34375 14.71875,3 14.34375,2.65625 12.6875,1 l -1.375,0 2,2 -2,2 L 9.6875,5 11.34375,3.34375 11.71875,3 11.34375,2.65625 9.6875,1 l -1.375,0 2,2 -2,2 L 6.6875,5 8.34375,3.34375 8.71875,3 8.34375,2.65625 6.6875,1 l -1.375,0 2,2 -2,2 L 3.6875,5 5.34375,3.34375 5.71875,3 5.34375,2.65625 3.6875,1 z m 12,0 L 15,1.6875 15,1 z M 1,1.3125 1,2.6875 1.3125,3 1,3.3125 1,4.6875 2.34375,3.34375 2.71875,3 2.34375,2.65625 z M 6,7 l 5,3 -5,3 z"
     style="color:#000000;fill:#434a55;fill-opacity:0.6745098;fill-rule:nonzero;stroke:none;stroke-width:4;marker:none;visibility:visible;display:inline;overflow:visible;enable-background:accumulate" />
  <path
     style="font-size:medium;font-style:normal;font-variant:normal;font-weight:normal;font-stretch:normal;text-indent:0;text-align:start;text-decoration:none;line-height:normal;letter-spacing:normal;word-spacing:normal;text-transform:none;direction:ltr;block-progression:tb;writing-mode:lr-tb;text-anchor:start;baseline-shift:baseline;color:#000000;fill:#d1d4d6;fill-opacity:0.74329164;fill-rule:nonzero;stroke:none;stroke-width:2;marker:none;visibility:visible;display:inline;overflow:visible;enable-background:accumulate;font-family:Sans;-inkscape-font-specification:Sans"
     d="M 0 0 L 0 0.09375 L 0 1.3125 L 0 2.6875 L 0 2.90625 L 0 3.09375 L 0 3.3125 L 0 4 L 0 4.6875 L 0 5 L 0 7.09375 L 0 15 L 0 16 L 1 16 L 16 16 L 16 4.09375 L 16 3.1875 L 16 2.8125 L 16 1.90625 L 16 1.6875 L 16 0 L 1.125 0 L 0 0 z M 2.3125 1 L 3.6875 1 L 5.34375 2.65625 L 5.71875 3 L 5.34375 3.34375 L 3.6875 5 L 5.3125 5 L 7.3125 3 L 5.3125 1 L 6.6875 1 L 8.34375 2.65625 L 8.71875 3 L 8.34375 3.34375 L 6.6875 5 L 8.3125 5 L 10.3125 3 L 8.3125 1 L 9.6875 1 L 11.34375 2.65625 L 11.71875 3 L 11.34375 3.34375 L 9.6875 5 L 11.3125 5 L 13.3125 3 L 11.3125 1 L 12.6875 1 L 14.34375 2.65625 L 14.71875 3 L 14.34375 3.34375 L 12.6875 5 L 14.3125 5 L 15 4.3125 L 15 5 L 15 15 L 1 15 L 1 5 L 2.3125 5 L 4.3125 3 L 2.3125 1 z M 14.3125 1 L 15 1 L 15 1.6875 L 14.3125 1 z M 1 1.3125 L 2.34375 2.65625 L 2.71875 3 L 2.34375 3.34375 L 1 4.6875 L 1 3.3125 L 1.3125 3 L 1 2.6875 L 1 1.3125 z M 6 7 L 6 13 L 11 10 L 6 7 z "
     id="path2992" />
  <path
     sodipodi:nodetypes="ccc"
     inkscape:connector-curvature="0"
     d="M 8.0000002,-6 11,-9 8.0000002,-12"
     style="fill:none;stroke:#000000;stroke-width:1px;stroke-linecap:butt;stroke-linejoin:miter;stroke-opacity:1"
     id="path3067" />
  <path
     sodipodi:nodetypes="ccc"
     inkscape:connector-curvature="0"
     d="m 5.0000002,-6 3,-3 -3,-3"
     style="fill:none;stroke:#000000;stroke-width:1px;stroke-linecap:butt;stroke-linejoin:miter;stroke-opacity:1"
     id="path3069" />
  <path
     sodipodi:nodetypes="ccc"
     inkscape:connector-curvature="0"
     d="m 2.0000002,-6 3,-3 -3,-3"
     style="fill:none;stroke:#000000;stroke-width:1px;stroke-linecap:butt;stroke-linejoin:miter;stroke-opacity:1"
     id="path3071" />
  <path
     sodipodi:nodetypes="ccc"
     inkscape:connector-curvature="0"
     d="M -0.99999984,-6 2.0000002,-9 -0.99999984,-12"
     style="fill:none;stroke:#000000;stroke-width:1px;stroke-linecap:butt;stroke-linejoin:miter;stroke-opacity:1"
     id="path3073" />
  <path
     sodipodi:nodetypes="ccc"
     inkscape:connector-curvature="0"
     d="m -3.9999998,-6 2.99999996,-3 -2.99999996,-3"
     style="fill:none;stroke:#000000;stroke-width:1px;stroke-linecap:butt;stroke-linejoin:miter;stroke-opacity:1"
     id="path3075" />
  <path
     style="fill:none;stroke:#000000;stroke-width:1px;stroke-linecap:butt;stroke-linejoin:miter;stroke-opacity:1"
     d="m 11,-6 3,-3 -3,-3"
     inkscape:connector-curvature="0"
     sodipodi:nodetypes="ccc"
     id="path13" />
</svg>
